archdroid-icon-theme/Archdroid-Red/apps/scalable/gnome-sound-recorder.svg

<svg xmlns="http://www.w3.org/2000/svg" fill="#F44336" viewBox="0 0 48 48"><path d="m24 29c3.31 0 5.98-2.69 5.98-6l.02-12c0-3.32-2.68-6-6-6-3.31 0-6 2.68-6 6v12c0 3.31 2.69 6 6 6m10.6-6c0 6-5.07 10.2-10.6 10.2-5.52 0-10.6-4.2-10.6-10.2h-3.4c0 6.83 5.44 12.47 12 13.44v6.56h4v-6.56c6.56-.97 12-6.61 12-13.44h-3.4"/></svg>

<?xml version="1.0" encoding="UTF-8" standalone="no"?>
<svg
   xmlns:dc="http://purl.org/dc/elements/1.1/"
   xmlns:cc="http://creativecommons.org/ns#"
   xmlns:rdf="http://www.w3.org/1999/02/22-rdf-syntax-ns#"
   xmlns:svg="http://www.w3.org/2000/svg"
   xmlns="http://www.w3.org/2000/svg"
   xmlns:sodipodi="http://sodipodi.sourceforge.net/DTD/sodipodi-0.dtd"
   xmlns:inkscape="http://www.inkscape.org/namespaces/inkscape"
   fill="#F44336"
   width="48"
   height="48"
   viewBox="0 0 48 48"
   id="svg2"
   version="1.1"
   inkscape:version="0.91 r13725"
   sodipodi:docname="gnome-sound-recorder.svg">
  <metadata
     id="metadata10">
    <rdf:RDF>
      <cc:Work
         rdf:about="">
        <dc:format>image/svg+xml</dc:format>
        <dc:type
           rdf:resource="http://purl.org/dc/dcmitype/StillImage" />
      </cc:Work>
    </rdf:RDF>
  </metadata>
  <defs
     id="defs8" />
  <sodipodi:namedview
     pagecolor="#ffffff"
     bordercolor="#666666"
     borderopacity="1"
     objecttolerance="10"
     gridtolerance="10"
     guidetolerance="10"
     inkscape:pageopacity="0"
     inkscape:pageshadow="2"
     inkscape:window-width="640"
     inkscape:window-height="480"
     id="namedview6"
     showgrid="false"
     inkscape:zoom="6.549153645833334"
     inkscape:cx="23.99999999999999"
     inkscape:cy="-0.4306377056513746"
     inkscape:window-x="0"
     inkscape:window-y="30"
     inkscape:window-maximized="0"
     inkscape:current-layer="svg2" />
  <path
     d="m 24,29 c 3.31,0 5.98,-2.69 5.98,-6 L 30,11 C 30,7.68 27.32,5 24,5 20.69,5 18,7.68 18,11 l 0,12 c 0,3.31 2.69,6 6,6 z M 34.6,23 C 34.6,29 29.53,33.2 24,33.2 18.48,33.2 13.4,29 13.4,23 L 10,23 c 0,6.83 5.44,12.47000000000001 12,13.44000000000001 L 22,43 l 4,0 0,-6.56 C 32.56,35.47 38,29.83 38,23 l -3.4,0 z"
     id="path4"
     inkscape:connector-curvature="0" />
</svg>
